packages/react-icons/icons/train.svg

<svg width="24" height="25" viewBox="0 0 24 25" xmlns="http://www.w3.org/2000/svg"><path fill-rule="evenodd" clip-rule="evenodd" d="M9.58011 5.23789C9.58011 4.18855 10.4308 3.33789 11.4801 3.33789H12.5218C13.5712 3.33789 14.4218 4.18855 14.4218 5.23789V5.75537C15.4229 5.80926 16.2181 6.63806 16.2181 7.65259V9.93646L16.6563 10.1626C16.9555 10.3171 17.1435 10.6256 17.1435 10.9624V16.3025C17.1435 16.6355 16.9626 16.9263 16.6937 17.082L19.7373 20.1256C20.0888 20.4771 20.0888 21.0469 19.7373 21.3984C19.3858 21.7499 18.816 21.7499 18.4645 21.3984L16.8135 19.7474C16.7925 19.7491 16.7714 19.75 16.75 19.75H7.24979C7.22861 19.75 7.20764 19.7491 7.18691 19.7474L5.53591 21.3984C5.18444 21.7499 4.61459 21.7499 4.26312 21.3984C3.91164 21.0469 3.91164 20.4771 4.26312 20.1256L7.26799 17.1207C6.95832 16.9785 6.74329 16.6656 6.74329 16.3025V10.9624C6.74329 10.6256 6.93128 10.3171 7.23053 10.1626L7.78348 9.87724V7.65259C7.78348 6.63793 8.57884 5.80903 9.58011 5.75535V5.23789ZM15.3161 18.25L14.2686 17.2025H13.2978H10.589H9.73182L8.68431 18.25H15.3161ZM12.6218 5.23789V5.75259H11.3801V5.23789C11.3801 5.18266 11.4249 5.13789 11.4801 5.13789H12.5218C12.5771 5.13789 12.6218 5.18266 12.6218 5.23789ZM14.4181 9.00747V7.65259C14.4181 7.59736 14.3733 7.55259 14.3181 7.55259H12.7221V8.13216L14.4181 9.00747ZM11.227 7.55259H9.68348C9.62825 7.55259 9.58348 7.59736 9.58348 7.65259V8.94826L11.227 8.10005V7.55259ZM11.9434 9.75588L8.54329 11.5107V15.4025H10.589H13.2978H15.3435V11.5107L11.9434 9.75588ZM9.99572 14.9137C10.5431 14.9137 10.9868 14.47 10.9868 13.9226C10.9868 13.3752 10.5431 12.9314 9.99572 12.9314C9.44834 12.9314 9.00459 13.3752 9.00459 13.9226C9.00459 14.47 9.44834 14.9137 9.99572 14.9137ZM14.9962 13.9226C14.9962 14.47 14.5525 14.9137 14.0051 14.9137C13.4577 14.9137 13.014 14.47 13.014 13.9226C13.014 13.3752 13.4577 12.9314 14.0051 12.9314C14.5525 12.9314 14.9962 13.3752 14.9962 13.9226Z"/></svg>

<svg xmlns="http://www.w3.org/2000/svg" width="24" height="25"><path fill-rule="evenodd" d="M9.58 5.238c0-1.05.85-1.9 1.9-1.9h1.042c1.05 0 1.9.85 1.9 1.9v.517a1.9 1.9 0 0 1 1.796 1.898v2.283l.438.227a.9.9 0 0 1 .488.8v5.34a.9.9 0 0 1-.45.779l3.043 3.044a.9.9 0 1 1-1.272 1.272l-1.651-1.65a.785.785 0 0 1-.064.002h-9.5a.77.77 0 0 1-.063-.003l-1.651 1.651a.9.9 0 1 1-1.273-1.272l3.005-3.005a.9.9 0 0 1-.525-.819v-5.34a.9.9 0 0 1 .488-.8l.552-.285V7.653A1.9 1.9 0 0 1 9.58 5.755v-.517Zm5.736 13.012-1.047-1.047H9.732L8.684 18.25h6.632ZM12.622 5.238v.515H11.38v-.515a.1.1 0 0 1 .1-.1h1.042a.1.1 0 0 1 .1.1Zm1.796 3.77V7.652a.1.1 0 0 0-.1-.1h-1.596v.58l1.696.874Zm-3.191-1.455H9.683a.1.1 0 0 0-.1.1v1.295l1.644-.848v-.547Zm.716 2.203-3.4 1.755v3.892h6.801V11.51l-3.4-1.755Zm-1.947 5.158a.991.991 0 1 0 0-1.982.991.991 0 0 0 0 1.982Zm5-.991a.991.991 0 1 1-1.982 0 .991.991 0 0 1 1.982 0Z" clip-rule="evenodd"/></svg>
